X:147
T: Feierabendlied (2-21) S. 157
N: P0922
O: Lothringen
S: PINCK, Louis: Verklingende Weisen, Bd 2, Metz 1928]
R: Arbeitslied]
M: 6/8
L: 1/16
K: D
F2 | D4F2F4A2 | A4G2F4d2 | A4G2F4
F2 | D4F2F2E2G2 | B6A4
A2 | A4G2E4G2 | B2A2G2F4
F2 | D4F2F2E2F2 | G4z6
B2 | A2d2AGF4E2 | D6z4

